public/library/arc.svg

<svg width="80" height="25" viewBox="0 0 80 25" fill="none" xmlns="http://www.w3.org/2000/svg">
  <title>Arc Logo</title>
  <path fill-rule="evenodd" clip-rule="evenodd"
    d="M64.7823 24.6681C62.6867 23.1021 61.0598 21.2472 59.9518 19.1583C58.8403 17.059 58.2782 14.8132 58.2782 12.4889C58.2782 10.1458 58.8339 7.89653 59.9355 5.81042C61.0315 3.73403 62.664 1.88889 64.7823 0.316667L65.224 0L65.401 0.234722L66.6591 1.98611L66.4623 2.15833C64.6867 3.72778 63.5086 5.24028 62.807 6.79097C62.1019 8.33819 61.7458 10.2458 61.7458 12.4646C61.7458 14.7597 62.1139 16.7056 62.8446 18.2493C63.5787 19.8035 64.744 21.3007 66.3065 22.6917L66.6591 22.9764L66.5069 23.2146L65.224 25L64.7823 24.6681V24.6681ZM73.4959 24.6681L73.0541 25L71.7713 23.2146L71.6184 22.9764L71.9709 22.6917C73.5334 21.3007 74.6994 19.8028 75.4329 18.2493C76.1635 16.7056 76.5316 14.7597 76.5316 12.4646C76.5316 10.2458 76.1762 8.33819 75.4711 6.79097C74.7688 5.24028 73.5908 3.72778 71.8152 2.15833L71.6184 1.98611L72.8764 0.234722L73.0541 0L73.4959 0.316667C75.6141 1.88889 77.2467 3.73333 78.3419 5.81042C79.4368 7.87239 80.0057 10.164 80 12.4889C80 14.8132 79.4378 17.059 78.3263 19.1583C77.2177 21.2472 75.5915 23.1021 73.4959 24.6681ZM4.28106 12.5056C4.28106 14.2187 4.74478 15.6125 5.67575 16.6903C6.6315 17.7806 7.83504 18.3222 9.28637 18.3222C10.8368 18.3222 12.0906 17.7958 13.0471 16.7465C14.0028 15.6562 14.4793 14.2722 14.4793 12.5958C14.4793 10.9201 14.0028 9.53889 13.0471 8.44861C12.0913 7.38403 10.8488 6.85139 9.3246 6.85139C7.88601 6.85139 6.68247 7.39028 5.71398 8.46736C4.75823 9.55764 4.28106 10.9014 4.28106 12.5056ZM14.2188 3.62153H18.4241V21.4986H14.2188V19.625C12.4942 21.2153 10.6393 22.0118 8.65415 22.0118C6.14867 22.0118 4.07787 21.1187 2.43894 19.3333C0.812743 17.5111 0 15.2333 0 12.5056C0 9.82708 0.812743 7.59375 2.43894 5.80486C4.06513 4.02014 6.0977 3.12708 8.54371 3.12708C10.652 3.12708 12.5451 3.98194 14.2188 5.69514V3.62153ZM23.709 3.77431H27.8952V5.37153C28.6669 4.57639 29.3373 3.99653 29.9695 3.79028C31.932 3.14167 34.3363 3.58958 36.2895 4.66736L34.5904 8.02153C33.7961 7.46111 32.5543 7.09514 31.7982 7.09514C29.515 7.09514 27.8952 8.98055 27.8952 12.3826V21.6514H23.709V3.77431V3.77431ZM52.4156 4.39236V8.34236C51.1256 6.85139 48.2294 6.85139 47.2226 6.85139C45.6474 6.85139 44.3391 7.39653 43.297 8.48681C42.2556 9.57361 41.7345 10.9396 41.7345 12.5771C41.7345 14.2535 42.2364 15.6319 43.2396 16.709C44.2591 17.784 45.5547 18.3222 47.1306 18.3222C48.1338 18.3222 51.2531 18.0097 52.4156 16.9785V20.7097C50.7164 21.5778 49.0173 22.0125 47.3182 22.0125C44.5133 22.0125 42.1664 21.1201 40.2832 19.334C38.3964 17.5333 37.4534 15.2993 37.4534 12.634C37.4534 9.96528 38.4092 7.71597 40.3179 5.88056C42.2294 4.04514 44.5741 3.12708 47.3529 3.12708C49.1405 3.12708 50.8276 3.54653 52.4148 4.39236H52.4156Z"
    fill="black" />
</svg>

<svg width="80" height="25" fill="none" xmlns="http://www.w3.org/2000/svg"><path fill-rule="evenodd" clip-rule="evenodd" d="M64.782 24.668c-2.095-1.566-3.722-3.42-4.83-5.51a14.124 14.124 0 0 1-1.674-6.67c0-2.342.556-4.591 1.657-6.678 1.096-2.076 2.729-3.921 4.847-5.493L65.224 0l.177.235 1.258 1.751-.197.172c-1.775 1.57-2.953 3.082-3.655 4.633-.705 1.547-1.061 3.455-1.061 5.674 0 2.295.368 4.24 1.099 5.784.734 1.555 1.899 3.052 3.462 4.443l.352.284-.152.239L65.224 25l-.442-.332Zm8.714 0-.442.332-1.283-1.785-.153-.239.353-.284c1.562-1.391 2.728-2.89 3.462-4.443.73-1.543 1.099-3.49 1.099-5.784 0-2.22-.356-4.127-1.06-5.674-.703-1.55-1.881-3.063-3.657-4.633l-.197-.172L72.876.235 73.054 0l.442.317c2.118 1.572 3.75 3.416 4.846 5.493A14.161 14.161 0 0 1 80 12.49c0 2.324-.562 4.57-1.674 6.67-1.108 2.088-2.734 3.943-4.83 5.51ZM4.28 12.506c0 1.713.464 3.107 1.395 4.184.955 1.09 2.159 1.632 3.61 1.632 1.55 0 2.805-.526 3.761-1.575.956-1.09 1.432-2.475 1.432-4.151 0-1.676-.476-3.057-1.432-4.147-.956-1.065-2.198-1.598-3.722-1.598-1.439 0-2.643.54-3.611 1.616-.956 1.09-1.433 2.434-1.433 4.039Zm9.938-8.884h4.205v17.877H14.22v-1.874c-1.725 1.59-3.58 2.387-5.565 2.387-2.505 0-4.576-.893-6.215-2.679C.813 17.511 0 15.233 0 12.506c0-2.679.813-4.912 2.439-6.701C4.065 4.02 6.098 3.127 8.544 3.127c2.108 0 4.001.855 5.675 2.568V3.622Zm9.49.152h4.186v1.598c.772-.796 1.442-1.375 2.075-1.582 1.962-.648 4.366-.2 6.32.877l-1.7 3.355c-.794-.56-2.036-.927-2.792-.927-2.283 0-3.903 1.886-3.903 5.288v9.268H23.71V3.774Zm28.707.618v3.95c-1.29-1.49-4.187-1.49-5.193-1.49-1.576 0-2.884.545-3.926 1.635-1.041 1.087-1.563 2.453-1.563 4.09 0 1.677.502 3.055 1.506 4.132 1.02 1.075 2.315 1.613 3.89 1.613 1.004 0 4.123-.312 5.286-1.343v3.73c-1.7.869-3.399 1.303-5.098 1.303-2.805 0-5.152-.892-7.035-2.678-1.887-1.8-2.83-4.035-2.83-6.7 0-2.669.956-4.918 2.865-6.753 1.911-1.836 4.256-2.754 7.035-2.754 1.788 0 3.475.42 5.062 1.265Z" fill="#000"/></svg>
